X:179
T:Padstow May Song - 1 from the singing of the man
%%VWML:SBG-1-2-404-0
F:http://www.vwml.org/record/SBG/1/2/404
Z:Original Sibelius transcriptions by M. & S. Graebe
L:1/4
M:4/4
I:linebreak $
K:G
V:1 treble nm="P1"
V:2 treble 
V:1
 D2 E F | G2 A A | G2 G F | E2 D D | E E F F | G2 C B, | A,2 G |$ E D G A | G F D D | G F G A | %10
w: |||||* C *|||||
 d2 c B | A2 G2 | c2 B c |"^rall:" A2 G2 | %14
w: ||||
V:2
 x4 | x4 | x4 | x4 | x4 | x4 | x3 |$ x4 | G2 F D | x D x2 | x4 | x4 | x4 | x2 x2 | %14
T:Padstow May Song - 2 N Worth at Padstow
F:http://www.vwml.org/record/SBG/1/2/404
Z:Original Sibelius transcriptions by M. & S. Graebe
M:2/4
I:linebreak $
K:Bb
V:1 treble nm="P1"
V:1
 F | F2 GA | B2 c2 | B>c BA | G3 F | GG AA | B2 D>D | C4- | C2 (B>A) |$ GF GA | Bc/-B/ A (G/A/) | %11
w: U-|nite all u-|nite. It's|all _ how _|white. For|summer _ is a-|come in to-|day|_ And _|whither _ we are|going _ _ _ It's _|
 (BA) Bc | f2 ed | cB (e2 | d2) c2 | B4- | B2 z2 | %17
w: all _ u _|nite. In the|mer- ry morn-|ing of|May|_|
T:Padstow May Song - 3  Worth from the man who danced Hobby
F:http://www.vwml.org/record/SBG/1/2/404
Z:Original Sibelius transcriptions by M. & S. Graebe
M:3/8
I:linebreak $
K:Bb
V:1 treble nm="P1"
V:1
 F | F2 B B | B2 (B2 | B3) F | B/B/ B3/2 c/ d | c2 d |$ G/G/ A B | c2 (G2 | G2) c | (cd)e | %10
w: All|now for to|fetch home|_ The|summer _ & the May|O! For|summer _ is a-|come O!|_ and|winter _ _|
 (dc) A | (B3 | !fermata!B2) x | %13
w: is _ a-|go!|_|
T:Padstow May Song - 4 Barrett
F:http://www.vwml.org/record/SBG/1/2/404
Z:Original Sibelius transcriptions by M. & S. Graebe
M:4/4
I:linebreak $
K:Bb
V:1 treble nm="P1"
V:1
 B2 | A G F E | D3/2 E/ F G/A/ | B d c B | _A2 G F |$ E D E F | G =A B D | C2 F2 | G/A/ B A F | %9
 (B c/d/) e d |$ c B A G | F2 B c/d/ | e d c B | A F G A | B2 x2 | %15

